X:157
T:RVW2/2/157ThenGallant Rainbow
C:Mr and Mrs Verrall, Horsham, Sussex, 8 October 1904
L:1/4
Q:1/4=120
M:4/4
I:linebreak $
K:C
"^(Editorial suggestion " G | d2 c A | F2 G B |"^(a)" c3/2 c/ A"^or " !courtesy!^F | G3 G |$ 
w: As|I was a-|walk- ing down|by the Span- ish|shore the|
w: |||||
(B3/2 c/) d g | (f e) d G | c2 f e | d3 G |$ B3/2 c/ d g | f e d B | d d c e | d3 c |$ d2 c A | 
w: drums _ they did|beat _ and the|can- non did|roar I|spied a lof- ty|ad- mir- al come|bea- ring down the|main which|caused us to|
w: |||||(e- ne- my?) *||||
F2 G (A/B/) | c2 G F | G3 ||$ G | d2 c A | F2 G B |"^(a) var." c2 A"^or " !courtesy!^F | G3 G |$ 
w: hoist up our _|top- sails a-|gain.||||||
w: ||||||||
B3/2 c/ d g | f e d G | c2 f e | d3 G |$ B3/2 c/ d g | f e d B | d d c e | d3 c |$ d2 c A | 
w: |||||||||
w: |||||||||
F2 G A/B/ | c2 G F | G3 |] 
w: |||
w: |||



